logo/shopify.svg

<?xml version="1.0" encoding="UTF-8" standalone="no"?>
<svg width="256px" height="292px" viewBox="0 0 256 292" version="1.1" xmlns="http://www.w3.org/2000/svg" xmlns:xlink="http://www.w3.org/1999/xlink" preserveAspectRatio="xMidYMid">
	<g>
		<path d="M223.773626,57.3402078 C223.572932,55.8793405 222.29409,55.0718963 221.236945,54.9832175 C220.182133,54.8945386 197.853734,53.2399781 197.853734,53.2399781 C197.853734,53.2399781 182.346604,37.8448639 180.64537,36.1412966 C178.941803,34.4377293 175.616346,34.9558004 174.325836,35.336186 C174.134476,35.3921937 170.937371,36.3793293 165.646977,38.0152206 C160.466266,23.1101737 151.325344,9.41162582 135.241802,9.41162582 C134.798408,9.41162582 134.341011,9.43029505 133.883615,9.45596525 C129.309654,3.40713457 123.643542,0.779440373 118.74987,0.779440373 C81.285392,0.779440373 63.3862673,47.6135387 57.7738299,71.414474 C43.2164974,75.9254268 32.8737437,79.1318671 31.5528956,79.5472575 C23.4271131,82.0956074 23.1704111,82.3523094 22.1039313,90.0090275 C21.2988208,95.8058236 0.0369009009,260.235071 0.0369009009,260.235071 L165.714653,291.277334 L255.485648,271.856667 C255.485648,271.856667 223.971987,58.8010751 223.773626,57.3402078 L223.773626,57.3402078 Z M156.48972,40.8482763 C152.328815,42.1364532 147.598499,43.5996542 142.471461,45.1865388 C142.476129,44.1994032 142.480796,43.2262696 142.480796,42.1644571 C142.480796,32.8998514 141.194953,25.4414939 139.132003,19.5280151 C147.418807,20.5688247 152.937899,29.9967861 156.48972,40.8482763 L156.48972,40.8482763 Z M128.852258,21.3646006 C131.155574,27.1380602 132.65378,35.4225312 132.65378,46.6030666 C132.65378,47.1748118 132.649112,47.6975503 132.644445,48.2272897 C123.52686,51.0510108 113.620499,54.1174319 103.690802,57.1931876 C109.265901,35.6768995 119.716003,25.2851391 128.852258,21.3646006 L128.852258,21.3646006 Z M117.720729,10.8281537 C119.337951,10.8281537 120.966841,11.3765623 122.525722,12.4500431 C110.519073,18.099819 97.6489725,32.3304399 92.2138928,60.7473424 C84.2701352,63.2070135 76.506069,65.6106769 69.3277499,67.834649 C75.6939575,46.1596724 90.8113669,10.8281537 117.720729,10.8281537 L117.720729,10.8281537 Z" fill="#95BF46"></path>
		<path d="M221.236945,54.9832175 C220.182133,54.8945386 197.853734,53.2399781 197.853734,53.2399781 C197.853734,53.2399781 182.346604,37.8448639 180.64537,36.1412966 C180.008283,35.5065427 179.149498,35.1821649 178.251042,35.0421456 L165.723988,291.275001 L255.485648,271.856667 C255.485648,271.856667 223.971987,58.8010751 223.773626,57.3402078 C223.572932,55.8793405 222.29409,55.0718963 221.236945,54.9832175" fill="#5E8E3E"></path>
		<path d="M135.241802,104.585029 L124.173282,137.510551 C124.173282,137.510551 114.474617,132.334507 102.586984,132.334507 C85.1592573,132.334507 84.2818035,143.272342 84.2818035,146.028387 C84.2818035,161.066452 123.48252,166.828244 123.48252,202.052414 C123.48252,229.764553 105.90544,247.610004 82.2048516,247.610004 C53.7646126,247.610004 39.2212821,229.90924 39.2212821,229.90924 L46.8359944,204.750118 C46.8359944,204.750118 61.7853808,217.585214 74.4011133,217.585214 C82.6435785,217.585214 85.9970391,211.095323 85.9970391,206.353338 C85.9970391,186.736644 53.8369559,185.861524 53.8369559,153.629098 C53.8369559,126.500372 73.3089633,100.246767 112.614694,100.246767 C127.760108,100.246767 135.241802,104.585029 135.241802,104.585029" fill="#FFFFFF"></path>
	</g>
</svg>

<svg viewBox="0 0 256 292" xmlns="http://www.w3.org/2000/svg"><path fill="#95BF46" d="M223.77 57.34c-.21-1.47-1.48-2.27-2.54-2.36 -1.06-.09-23.39-1.75-23.39-1.75s-15.51-15.4-17.21-17.1c-1.71-1.71-5.03-1.19-6.32-.81 -.2.05-3.39 1.04-8.68 2.67 -5.19-14.91-14.33-28.61-30.41-28.61 -.45 0-.91.01-1.36.04 -4.58-6.05-10.25-8.68-15.14-8.68 -37.47 0-55.37 46.83-60.98 70.63 -14.56 4.51-24.91 7.71-26.23 8.13 -8.13 2.54-8.39 2.8-9.45 10.46C21.25 95.75-.01 260.18-.01 260.18l165.67 31.04 89.77-19.43s-31.52-213.06-31.72-214.52v-.001Zm-67.29-16.5c-4.17 1.28-8.9 2.75-14.02 4.33 0-.99 0-1.97 0-3.03 0-9.27-1.29-16.73-3.35-22.64 8.28 1.04 13.8 10.46 17.35 21.32v0Zm-27.64-19.49c2.3 5.77 3.8 14.05 3.8 25.23 0 .57-.01 1.09-.01 1.62 -9.12 2.82-19.03 5.89-28.96 8.96 5.57-21.52 16.02-31.91 25.16-35.83v-.001ZM117.7 10.81c1.61 0 3.24.54 4.8 1.62 -12.01 5.64-24.88 19.88-30.32 48.29 -7.95 2.45-15.71 4.86-22.89 7.08 6.36-21.68 21.48-57.01 48.39-57.01v-.001Z"/><path fill="#5E8E3E" d="M221.23 54.98c-1.06-.09-23.39-1.75-23.39-1.75s-15.51-15.4-17.21-17.1c-.64-.64-1.5-.96-2.4-1.1L165.7 291.26l89.76-19.42s-31.52-213.06-31.72-214.52c-.21-1.47-1.48-2.27-2.54-2.36"/><path fill="#FFF" d="M135.24 104.58l-11.07 32.92s-9.7-5.18-21.59-5.18c-17.43 0-18.31 10.93-18.31 13.69 0 15.03 39.2 20.79 39.2 56.02 0 27.71-17.58 45.55-41.28 45.55 -28.45 0-42.99-17.71-42.99-17.71l7.61-25.16s14.94 12.83 27.56 12.83c8.24 0 11.59-6.49 11.59-11.24 0-19.62-32.17-20.5-32.17-52.73 0-27.13 19.47-53.39 58.77-53.39 15.14 0 22.62 4.33 22.62 4.33"/></svg>
